X:1
T: The Merry Andrew
N:
C:
S:Play  3  times
A:
O:
R:
M:4/4
K:Am
I:speed 200
%W: A1
% voice 1 (1 lines, 28 notes)
K:Am
M:4/4
L:1/16
A6 B2 c4 d4 |e8 a8 |g4 a4 e4 g4 |^f4 g2 f2 e2 d2 c2 B2 |c6 d2 e4 ^f4 |g8 b8 |a4 ^f4 g4 e4 |d16 |
%W: A2
% voice 1 (1 lines, 28 notes)
A6 B2 c4 d4 |e8 a8 |g4 a4 e4 g4 |^f4 g2 f2 e2 d2 c2 B2 |c6 d2 e4 ^f4 |g8 b8 |a4 ^f4 g4 e4 |d16 |
%W: B1
% voice 1 (1 lines, 34 notes)
e6 d2 c2 d2 e2 ^f2 |g6 d2 g8 |c6 B2 A2 B2 c2 d2 |e6 B2 e8 |A6 G2 ^F2 G2 A2 B2 |c6 d2 e4 ^f4 |g4 d4 d4 B4 |A8 A8 |
%W: B2
% voice 1 (1 lines, 34 notes)
e6 d2 c2 d2 e2 ^f2 |g6 d2 g8 |c6 B2 A2 B2 c2 d2 |e6 B2 e8 |A6 G2 ^F2 G2 A2 B2 |c6 d2 e4 ^f4 |g4 d4 d4 B4 |A8 A8 ||
